src/assets/animalImage/img/panda.svg

<?xml version="1.0" encoding="UTF-8" standalone="no"?><!DOCTYPE svg PUBLIC "-//W3C//DTD SVG 1.1//EN" "http://www.w3.org/Graphics/SVG/1.1/DTD/svg11.dtd"><svg width="100%" height="100%" viewBox="0 0 78 80" version="1.1" xmlns="http://www.w3.org/2000/svg" xmlns:xlink="http://www.w3.org/1999/xlink" xml:space="preserve" style="fill-rule:evenodd;clip-rule:evenodd;stroke-linejoin:round;stroke-miterlimit:1.41421;"><path d="M72.652,19.005c3.56,-4.44 2.849,-10.925 -1.591,-14.488c-4.439,-3.561 -10.925,-2.849 -14.487,1.591l-2.12,2.643c-4.257,-1.713 -8.904,-2.666 -13.775,-2.666c-4.872,0 -9.517,0.953 -13.776,2.666l-2.119,-2.643c-3.563,-4.44 -10.049,-5.152 -14.488,-1.591c-4.44,3.563 -5.15,10.048 -1.591,14.488l1.984,2.473c-4.362,6.064 -6.939,13.497 -6.939,21.537c0,18.728 13.945,34.19 32.015,36.593c0.193,0.027 0.386,0.051 0.579,0.074c0.315,0.037 0.63,0.072 0.947,0.1c0.319,0.03 0.642,0.052 0.964,0.074c0.231,0.015 0.462,0.034 0.693,0.043c0.574,0.027 1.151,0.045 1.731,0.045c0.58,0 1.155,-0.018 1.729,-0.045c0.233,-0.009 0.465,-0.029 0.697,-0.043c0.321,-0.022 0.64,-0.044 0.958,-0.074c0.321,-0.028 0.638,-0.063 0.955,-0.101c0.189,-0.022 0.377,-0.046 0.565,-0.071c18.075,-2.401 32.023,-17.864 32.023,-36.595c0,-8.04 -2.577,-15.473 -6.939,-21.537l1.985,-2.473Z" style="fill:#1b0000;fill-opacity:0.2;"/><path d="M0,40.765c0,-20.395 16.533,-36.929 36.928,-36.929c20.396,0 36.929,16.534 36.929,36.929c0,20.395 -16.533,36.928 -36.929,36.928c-20.395,0 -36.928,-16.533 -36.928,-36.928" style="fill:#fff;fill-rule:nonzero;"/><path d="M8.161,41.056c0,-5.195 4.211,-9.405 9.406,-9.405c5.191,0 9.404,4.21 9.404,9.405c0,5.194 -4.213,9.407 -9.404,9.407c-5.195,0 -9.406,-4.213 -9.406,-9.407" style="fill:#3c3c3b;fill-rule:nonzero;"/><path d="M46.885,41.056c0,-5.195 4.212,-9.405 9.406,-9.405c5.191,0 9.404,4.21 9.404,9.405c0,5.194 -4.213,9.407 -9.404,9.407c-5.194,0 -9.406,-4.213 -9.406,-9.407" style="fill:#3c3c3b;fill-rule:nonzero;"/><path d="M36.929,51.504c-6.583,0 -11.921,5.131 -11.921,11.462l0,12.718c3.72,1.3 7.734,2.01 11.921,2.01c4.185,0 8.198,-0.71 11.918,-2.01l0,-12.718c0,-6.331 -5.337,-11.462 -11.918,-11.462" style="fill:#f6f6f6;fill-rule:nonzero;"/><path d="M6.546,2.267c4.44,-3.561 10.925,-2.849 14.487,1.591l3.236,4.034l-16.079,12.897l-3.234,-4.035c-3.56,-4.44 -2.85,-10.924 1.59,-14.487" style="fill:#3c3c3b;fill-rule:nonzero;"/><path d="M67.311,2.267c-4.439,-3.561 -10.925,-2.849 -14.486,1.591l-3.236,4.034l16.077,12.897l3.236,-4.035c3.56,-4.44 2.849,-10.924 -1.591,-14.487" style="fill:#3c3c3b;fill-rule:nonzero;"/><path d="M14.046,40.747c0.296,-1.488 1.741,-2.454 3.228,-2.159c1.49,0.296 2.457,1.742 2.16,3.23c-0.039,0.191 -0.096,0.371 -0.168,0.542c-0.345,-0.464 -0.889,-0.821 -1.667,-0.977c-1.402,-0.277 -2.551,0.319 -3.262,1.227c-0.305,-0.547 -0.425,-1.202 -0.291,-1.863m1.845,4.801c2.356,0.469 4.645,-1.06 5.115,-3.416c0.468,-2.357 -1.062,-4.646 -3.418,-5.115c-2.356,-0.47 -4.644,1.06 -5.114,3.417c-0.469,2.356 1.06,4.645 3.417,5.114" style="fill:#fff;fill-rule:nonzero;"/><path d="M17.599,41.383c0.778,0.155 1.322,0.513 1.668,0.977c0.071,-0.171 0.129,-0.351 0.166,-0.542c0.298,-1.488 -0.669,-2.934 -2.159,-3.23c-1.487,-0.296 -2.933,0.671 -3.228,2.158c-0.134,0.662 -0.014,1.317 0.291,1.865c0.711,-0.908 1.861,-1.505 3.262,-1.228" style="fill-rule:nonzero;"/><path d="M58.893,42.611c-0.71,-0.909 -1.86,-1.505 -3.262,-1.228c-0.778,0.155 -1.321,0.513 -1.667,0.977c-0.072,-0.171 -0.129,-0.352 -0.167,-0.542c-0.297,-1.488 0.67,-2.934 2.159,-3.23c1.487,-0.296 2.933,0.671 3.229,2.159c0.133,0.661 0.013,1.316 -0.292,1.864m1.863,-2.177c-0.47,-2.356 -2.757,-3.886 -5.113,-3.417c-2.357,0.47 -3.887,2.758 -3.419,5.114c0.47,2.357 2.76,3.886 5.115,3.417c2.357,-0.468 3.886,-2.759 3.417,-5.114" style="fill:#fff;fill-rule:nonzero;"/><path d="M55.631,41.383c-0.778,0.155 -1.321,0.513 -1.667,0.977c-0.071,-0.171 -0.129,-0.351 -0.167,-0.542c-0.297,-1.488 0.669,-2.934 2.16,-3.23c1.486,-0.296 2.932,0.671 3.228,2.158c0.133,0.662 0.013,1.317 -0.291,1.865c-0.711,-0.908 -1.861,-1.505 -3.263,-1.228" style="fill-rule:nonzero;"/><path d="M36.929,56.595c-0.205,-0.011 -0.411,-0.017 -0.612,-0.02l-0.002,9.635c-1.246,2.183 -2.82,3.42 -4.683,3.679c-3.957,0.539 -9.407,-4.155 -9.607,-3.954c4.219,4.709 10.92,7.628 14.904,1.62c3.983,6.008 10.683,3.089 14.903,-1.62c-0.2,-0.201 -5.65,4.493 -9.608,3.954c-1.862,-0.259 -3.436,-1.496 -4.683,-3.679l0,-9.635c-0.204,0.003 -0.409,0.009 -0.612,0.02"/><path d="M36.927,47.302c-10.1,-0.107 -10.012,3.552 -4.728,7.281c1.925,1.359 3.552,2.266 4.728,2.841c1.176,-0.575 2.805,-1.482 4.731,-2.841c5.283,-3.729 5.371,-7.388 -4.731,-7.281" style="fill:#3c3c3b;"/></svg>

<?xml version="1.0" encoding="UTF-8" standalone="no"?>
<!DOCTYPE svg PUBLIC "-//W3C//DTD SVG 1.1//EN" "http://www.w3.org/Graphics/SVG/1.1/DTD/svg11.dtd">
<svg width="100%" height="100%" viewBox="0 0 80 80" version="1.1" xmlns="http://www.w3.org/2000/svg" xmlns:xlink="http://www.w3.org/1999/xlink" xml:space="preserve" xmlns:serif="http://www.serif.com/" style="fill-rule:evenodd;clip-rule:evenodd;stroke-linejoin:round;stroke-miterlimit:1.41421;">
    <g transform="matrix(1,0,0,1,1,0)">
        <path d="M72.652,19.005C76.212,14.565 75.501,8.08 71.061,4.517C66.622,0.956 60.136,1.668 56.574,6.108L54.454,8.751C50.197,7.038 45.55,6.085 40.679,6.085C35.807,6.085 31.162,7.038 26.903,8.751L24.784,6.108C21.221,1.668 14.735,0.956 10.296,4.517C5.856,8.08 5.146,14.565 8.705,19.005L10.689,21.478C6.327,27.542 3.75,34.975 3.75,43.015C3.75,61.743 17.695,77.205 35.765,79.608C35.958,79.635 36.151,79.659 36.344,79.682C36.659,79.719 36.974,79.754 37.291,79.782C37.61,79.812 37.933,79.834 38.255,79.856C38.486,79.871 38.717,79.89 38.948,79.899C39.522,79.926 40.099,79.944 40.679,79.944C41.259,79.944 41.834,79.926 42.408,79.899C42.641,79.89 42.873,79.87 43.105,79.856C43.426,79.834 43.745,79.812 44.063,79.782C44.384,79.754 44.701,79.719 45.018,79.681C45.207,79.659 45.395,79.635 45.583,79.61C63.658,77.209 77.606,61.746 77.606,43.015C77.606,34.975 75.029,27.542 70.667,21.478L72.652,19.005Z" style="fill:rgb(27,0,0);fill-opacity:0.2;"/>
    </g>
    <g transform="matrix(1,0,0,1,1,0)">
        <path d="M0,40.765C0,20.37 16.533,3.836 36.928,3.836C57.324,3.836 73.857,20.37 73.857,40.765C73.857,61.16 57.324,77.693 36.928,77.693C16.533,77.693 0,61.16 0,40.765" style="fill:white;fill-rule:nonzero;"/>
    </g>
    <g transform="matrix(1,0,0,1,1,0)">
        <path d="M8.161,41.056C8.161,35.861 12.372,31.651 17.567,31.651C22.758,31.651 26.971,35.861 26.971,41.056C26.971,46.25 22.758,50.463 17.567,50.463C12.372,50.463 8.161,46.25 8.161,41.056" style="fill:rgb(60,60,59);fill-rule:nonzero;"/>
    </g>
    <g transform="matrix(1,0,0,1,1,0)">
        <path d="M46.885,41.056C46.885,35.861 51.097,31.651 56.291,31.651C61.482,31.651 65.695,35.861 65.695,41.056C65.695,46.25 61.482,50.463 56.291,50.463C51.097,50.463 46.885,46.25 46.885,41.056" style="fill:rgb(60,60,59);fill-rule:nonzero;"/>
    </g>
    <g transform="matrix(1,0,0,1,1,0)">
        <path d="M36.929,51.504C30.346,51.504 25.008,56.635 25.008,62.966L25.008,75.684C28.728,76.984 32.742,77.694 36.929,77.694C41.114,77.694 45.127,76.984 48.847,75.684L48.847,62.966C48.847,56.635 43.51,51.504 36.929,51.504" style="fill:rgb(246,246,246);fill-rule:nonzero;"/>
    </g>
    <g transform="matrix(1,0,0,1,1,0)">
        <path d="M6.546,2.267C10.986,-1.294 17.471,-0.582 21.033,3.858L24.269,7.892L8.19,20.789L4.956,16.754C1.396,12.314 2.106,5.83 6.546,2.267" style="fill:rgb(60,60,59);fill-rule:nonzero;"/>
    </g>
    <g transform="matrix(1,0,0,1,1,0)">
        <path d="M67.311,2.267C62.872,-1.294 56.386,-0.582 52.825,3.858L49.589,7.892L65.666,20.789L68.902,16.754C72.462,12.314 71.751,5.83 67.311,2.267" style="fill:rgb(60,60,59);fill-rule:nonzero;"/>
    </g>
    <g transform="matrix(1,0,0,1,1,0)">
        <path d="M14.046,40.747C14.342,39.259 15.787,38.293 17.274,38.588C18.764,38.884 19.731,40.33 19.434,41.818C19.395,42.009 19.338,42.189 19.266,42.36C18.921,41.896 18.377,41.539 17.599,41.383C16.197,41.106 15.048,41.702 14.337,42.61C14.032,42.063 13.912,41.408 14.046,40.747M15.891,45.548C18.247,46.017 20.536,44.488 21.006,42.132C21.474,39.775 19.944,37.486 17.588,37.017C15.232,36.547 12.944,38.077 12.474,40.434C12.005,42.79 13.534,45.079 15.891,45.548" style="fill:white;fill-rule:nonzero;"/>
    </g>
    <g transform="matrix(1,0,0,1,1,0)">
        <path d="M17.599,41.383C18.377,41.538 18.921,41.896 19.267,42.36C19.338,42.189 19.396,42.009 19.433,41.818C19.731,40.33 18.764,38.884 17.274,38.588C15.787,38.292 14.341,39.259 14.046,40.746C13.912,41.408 14.032,42.063 14.337,42.611C15.048,41.703 16.198,41.106 17.599,41.383" style="fill-rule:nonzero;"/>
    </g>
    <g transform="matrix(1,0,0,1,1,0)">
        <path d="M58.893,42.611C58.183,41.702 57.033,41.106 55.631,41.383C54.853,41.538 54.31,41.896 53.964,42.36C53.892,42.189 53.835,42.008 53.797,41.818C53.5,40.33 54.467,38.884 55.956,38.588C57.443,38.292 58.889,39.259 59.185,40.747C59.318,41.408 59.198,42.063 58.893,42.611M60.756,40.434C60.286,38.078 57.999,36.548 55.643,37.017C53.286,37.487 51.756,39.775 52.224,42.131C52.694,44.488 54.984,46.017 57.339,45.548C59.696,45.08 61.225,42.789 60.756,40.434" style="fill:white;fill-rule:nonzero;"/>
    </g>
    <g transform="matrix(1,0,0,1,1,0)">
        <path d="M55.631,41.383C54.853,41.538 54.31,41.896 53.964,42.36C53.893,42.189 53.835,42.009 53.797,41.818C53.5,40.33 54.466,38.884 55.957,38.588C57.443,38.292 58.889,39.259 59.185,40.746C59.318,41.408 59.198,42.063 58.894,42.611C58.183,41.703 57.033,41.106 55.631,41.383" style="fill-rule:nonzero;"/>
    </g>
    <g transform="matrix(1,0,0,1,1,0)">
        <path d="M36.929,56.595C36.724,56.584 36.518,56.578 36.317,56.575L36.315,66.21C35.069,68.393 33.495,69.63 31.632,69.889C27.675,70.428 22.225,65.734 22.025,65.935C26.244,70.644 32.945,73.563 36.929,67.555C40.912,73.563 47.612,70.644 51.832,65.935C51.632,65.734 46.182,70.428 42.224,69.889C40.362,69.63 38.788,68.393 37.541,66.21L37.541,56.575C37.337,56.578 37.132,56.584 36.929,56.595"/>
    </g>
    <g transform="matrix(1,0,0,1,1,0)">
        <path d="M36.927,47.302C26.827,47.195 26.915,50.854 32.199,54.583C34.124,55.942 35.751,56.849 36.927,57.424C38.103,56.849 39.732,55.942 41.658,54.583C46.941,50.854 47.029,47.195 36.927,47.302" style="fill:rgb(60,60,59);"/>
    </g>
</svg>
